X: 10712
Q: "Not too fast."
M: 2/4
L: 1/16
K: Eb
(e2g2)(B2e2) | d2G2c4 | BE3F3E | (D2F2F2)B2 |\
(e2g2)(B2e2) | d2=E2F2c2 | B2>E2 {F}E2DC | B,2E2E2 :|\
_D2 |\
b2(g2a2)(f2 | g2)e2f2(d2 | e3)E {F}E2DC | B,2E2E2_D2 |\
(bg)(bg) (af)(af) | (gf)(ge) (fe)(fd) | e3E {F}E2DC | B,2E2E2 |]


